assets/img/item/why/delivery.svg

<svg width="100" height="100" viewBox="0 0 100 100" fill="none" xmlns="http://www.w3.org/2000/svg">
<path d="M5.03046 49.9812C5.03046 41.4544 5.05718 33.0696 5.00702 24.6853C4.99745 23.0859 5.55239 22.0652 6.94523 21.2492C18.2911 14.6021 29.6488 7.97284 40.897 1.16309C43.3335 -0.312008 45.1195 -0.437727 47.636 1.09543C58.9069 7.96199 70.3187 14.5977 81.6974 21.2866C83.0074 22.0567 83.5985 22.9674 83.5883 24.5821C83.5147 36.2348 83.5592 47.8883 83.5298 59.5414C83.5273 60.5047 83.806 61.0042 84.6841 61.5136C90.57 64.9281 94.1943 69.9415 95.2343 76.7535C96.8578 87.3869 89.0233 98.0907 78.3681 99.7374C68.4655 101.268 59.3251 96.0021 55.7355 86.7005C55.5839 86.3076 55.4187 85.92 55.2011 85.3857C52.0576 87.2493 48.9278 89.0657 45.8429 90.9556C44.7877 91.602 43.9282 91.6023 42.842 90.9568C30.9294 83.8789 19.0028 76.8243 7.03998 69.8318C5.53077 68.9497 4.97513 67.8899 5.00085 66.1817C5.08142 60.83 5.03046 55.4763 5.03046 49.9812ZM62.8937 21.2264C53.6186 26.7207 44.3435 32.215 34.8892 37.8155C37.9198 39.6144 40.6918 41.3112 43.5286 42.8913C43.9821 43.1439 44.8282 43.0678 45.3179 42.8107C46.9862 41.9347 48.5734 40.905 50.1966 39.9426C58.3898 35.0846 66.573 30.2093 74.8055 25.4187C75.3494 25.1022 76.4448 25.1745 76.9869 25.525C78.2999 26.3739 77.9689 27.7246 76.2866 28.7217C66.7088 34.3984 57.134 40.0803 47.5264 45.7063C46.5333 46.2879 46.174 46.9017 46.1806 48.0453C46.2293 56.5738 46.2098 65.1026 46.2047 73.6313C46.2037 75.2522 45.5585 76.1378 44.3866 76.1862C43.1812 76.2359 42.4509 75.282 42.4179 73.6107C42.4122 73.3265 42.417 73.0421 42.417 72.7578C42.417 65.4137 42.2426 58.0634 42.4995 50.7282C42.6081 47.6273 41.9518 45.6004 38.9416 44.3642C36.9384 43.5416 35.141 42.2179 33.0283 40.9886C33.0283 41.7439 33.0283 42.2095 33.0283 42.6752C33.0283 46.0393 33.0397 49.4034 33.0238 52.7674C33.0148 54.6498 31.5984 55.4195 29.9545 54.4477C26.1783 52.2154 22.4187 49.9549 18.6275 47.7484C17.6572 47.1837 17.2843 46.4651 17.2984 45.3399C17.351 41.1236 17.3303 36.9062 17.3023 32.6894C17.2995 32.2728 17.1879 31.6483 16.9074 31.4747C14.2801 29.849 11.6049 28.3007 8.86582 26.6841C8.80399 27.0191 8.75827 27.1512 8.75823 27.2834C8.75419 40.0764 8.76682 52.8695 8.72508 65.6624C8.72208 66.5815 9.22314 66.8975 9.82969 67.2554C17.7099 71.9051 25.592 76.5516 33.4729 81.2001C36.385 82.9177 39.2952 84.6384 42.4176 86.4825C42.4176 84.7385 42.3956 83.2379 42.4242 81.7383C42.4491 80.4343 43.3728 79.3091 44.3353 79.3353C45.2895 79.3612 46.1949 80.5318 46.2044 81.7831C46.2156 83.2752 46.207 84.7675 46.207 86.4838C49.1217 84.7584 51.8166 83.1631 54.4636 81.5961C53.2381 68.3926 64.8978 56.2844 79.7136 59.5293C79.7525 59.3983 79.8262 59.266 79.8263 59.1337C79.8359 47.8097 79.8477 36.4856 79.8126 25.1617C79.8113 24.7534 79.4428 24.1839 79.0794 23.9645C75.8505 22.0157 72.5946 20.1104 69.3128 18.252C68.9755 18.061 68.337 18.1098 67.9755 18.3036C66.3154 19.1937 64.7042 20.1748 62.8937 21.2264ZM50.0655 24.6329C55.0365 21.6926 60.0074 18.7523 65.1304 15.722C62.593 14.2309 60.1814 12.9336 57.9087 11.4269C56.7934 10.6876 56.0126 10.8805 54.9966 11.4922C50.6766 14.0928 46.3114 16.6181 41.9816 19.2026C40.9637 19.8102 40.2073 19.5977 39.5181 18.7225C38.7914 17.7998 39.1225 17.0379 39.8907 16.382C40.353 15.9873 40.8649 15.6404 41.3888 15.3299C45.1724 13.0881 48.9648 10.861 52.9136 8.53555C50.3697 7.01545 47.9612 5.63152 45.6161 4.14748C44.6944 3.56418 43.989 3.58502 43.055 4.14408C35.898 8.42803 28.7099 12.66 21.5301 16.9059C17.9214 19.0401 14.31 21.1698 10.4996 23.4198C13.1354 24.975 15.6335 26.3794 18.0497 27.9128C18.8806 28.4401 19.4457 28.3463 20.2187 27.8827C24.947 25.0465 29.7018 22.2544 34.4485 19.4489C35.6142 18.76 36.8487 18.8881 37.3452 19.7443C37.8461 20.6081 37.4491 21.9091 36.4024 22.5379C34.2206 23.8487 32.0058 25.1045 29.8123 26.3959C27.4865 27.7653 25.1695 29.1497 22.6972 30.6175C25.3316 32.1858 27.7774 33.5961 30.1698 35.0919C30.9664 35.5899 31.5668 35.5634 32.3596 35.0914C38.1897 31.6203 44.0456 28.1926 50.0655 24.6329ZM64.9468 65.9326C55.9086 72.5559 55.7513 86.0119 64.6314 92.8989C72.9856 99.3778 85.4218 96.4874 90.0478 86.9611C93.4063 80.0449 91.7836 72.3685 86.7845 67.4971C80.751 61.6177 72.1607 61.0665 64.9468 65.9326ZM24.7868 36.0531C23.5803 35.3651 22.3737 34.6772 20.9398 33.8596C20.9398 37.5378 20.9323 40.9641 20.9562 44.3901C20.9578 44.6231 21.1349 44.9527 21.3309 45.0717C23.966 46.6714 26.6191 48.2417 29.4994 49.9573C29.4994 46.2099 29.5182 42.7358 29.466 39.2628C29.4615 38.9624 29.0391 38.5866 28.7219 38.3871C27.4902 37.6122 26.2227 36.8944 24.7868 36.0531Z" fill="#0769CD"/>
<path d="M19.0716 68.5932C18.9083 67.2447 18.7733 65.9971 18.7236 64.7462C18.6749 63.5225 18.6973 62.295 18.7175 61.0696C18.7374 59.8596 19.5411 58.9005 20.5459 59.0021C21.6808 59.1169 22.3026 59.7875 22.2917 60.9944C22.2725 63.1156 22.3627 65.2415 22.2408 67.3559C22.2038 67.9975 21.75 68.9525 21.2516 69.1409C20.6843 69.3553 19.8534 68.8724 19.0716 68.5932Z" fill="#0769CD"/>
<path d="M15.5954 59.9458C15.5954 61.2644 15.6142 62.444 15.5903 63.6227C15.5626 64.9893 14.7218 66.0638 13.7277 66.0574C12.6126 66.0501 11.8898 65.1313 11.8797 63.6616C11.8666 61.7749 11.8645 59.888 11.8803 58.0014C11.893 56.4935 12.565 55.6506 13.7116 55.6465C14.8708 55.6424 15.5276 56.4408 15.5908 57.9671C15.6162 58.5792 15.5953 59.1933 15.5954 59.9458Z" fill="#0769CD"/>
<path d="M68.5773 71.6961C65.2662 74.4428 64.3046 77.9634 65.1923 81.8889C66.0886 85.8525 68.67 88.4781 72.721 89.2595C79.5952 90.5856 85.12 85.9282 84.9245 79.0152C84.8325 75.763 83.2736 73.2045 80.7055 71.2182C79.3712 70.1861 79.5661 68.4748 81.0794 68.0145C81.57 67.8653 82.3321 68.0173 82.7542 68.3262C86.8589 71.3301 89.0022 75.4342 88.602 80.4948C88.1545 86.1535 85.105 90.2751 79.7918 92.2957C71.4974 95.4501 62.7868 90.2703 61.3655 81.5607C60.0649 73.5915 66.6734 65.73 74.5483 65.8434C75.7012 65.86 76.5621 66.246 76.6684 67.4313C76.7708 68.5742 76.1169 69.2445 74.9225 69.3853C72.666 69.6514 70.4606 70.0914 68.5773 71.6961Z" fill="#0769CD"/>
<path d="M74.9455 83.7711C74.6068 84.1114 74.3465 84.387 74.0714 84.6471C72.7462 85.9002 72.0184 85.8872 70.7112 84.5961C70.0715 83.9642 69.4321 83.3318 68.7907 82.7014C67.968 81.8929 67.7869 80.9652 68.5087 80.0482C69.1703 79.2079 70.3041 79.2586 71.2613 80.063C71.6214 80.3657 71.9541 80.7012 72.5511 81.2556C74.4919 79.2491 76.4136 77.2485 78.3527 75.2649C79.0767 74.5242 79.8724 73.9141 80.9435 74.6689C82.0749 75.4661 82.1326 76.529 81.03 77.6622C79.0494 79.6977 77.0238 81.6893 74.9455 83.7711Z" fill="#0769CD"/>
</svg>

<svg width="100" height="100" fill="none" xmlns="http://www.w3.org/2000/svg"><path d="M5.03 49.981c0-8.527.027-16.911-.023-25.296-.01-1.6.545-2.62 1.938-3.436C18.291 14.602 29.65 7.973 40.897 1.163c2.437-1.475 4.223-1.6 6.739-.068 11.27 6.867 22.683 13.503 34.061 20.192 1.31.77 1.901 1.68 1.891 3.295-.073 11.653-.029 23.306-.058 34.96-.003.963.276 1.462 1.154 1.972 5.886 3.414 9.51 8.428 10.55 15.24 1.624 10.633-6.21 21.337-16.866 22.983-9.902 1.531-19.043-3.735-22.632-13.036-.152-.393-.317-.781-.535-1.315-3.143 1.863-6.273 3.68-9.358 5.57-1.055.646-1.915.646-3.001 0A5814.163 5814.163 0 007.04 69.833C5.53 68.95 4.975 67.89 5 66.182c.081-5.352.03-10.706.03-16.2zm57.864-28.755l-28.005 16.59c3.03 1.798 5.803 3.495 8.64 5.075.453.253 1.3.177 1.789-.08 1.668-.876 3.255-1.906 4.879-2.868 8.193-4.858 16.376-9.734 24.608-14.524.544-.317 1.64-.245 2.182.106 1.313.849.982 2.2-.7 3.197-9.578 5.676-19.153 11.358-28.76 16.984-.994.582-1.353 1.196-1.346 2.34.048 8.528.029 17.057.024 25.585-.001 1.621-.646 2.507-1.818 2.555-1.206.05-1.936-.904-1.97-2.575-.005-.285 0-.569 0-.853 0-7.344-.174-14.695.082-22.03.11-3.1-.547-5.128-3.557-6.364-2.004-.822-3.801-2.146-5.914-3.375v1.686c0 3.364.012 6.728-.004 10.092-.01 1.883-1.426 2.652-3.07 1.68-3.776-2.232-7.535-4.492-11.326-6.699-.97-.564-1.344-1.283-1.33-2.408.053-4.216.032-8.434.004-12.65-.003-.417-.114-1.042-.395-1.215-2.627-1.626-5.302-3.174-8.041-4.79-.062.334-.108.466-.108.598-.004 12.793.009 25.587-.033 38.38-.003.919.498 1.234 1.105 1.592 7.88 4.65 15.762 9.297 23.643 13.945 2.912 1.718 5.822 3.438 8.945 5.282 0-1.743-.022-3.244.006-4.744.025-1.304.949-2.429 1.911-2.403.954.026 1.86 1.197 1.87 2.448.01 1.492.002 2.984.002 4.7l8.257-4.887c-1.226-13.203 10.434-25.312 25.25-22.067.038-.13.112-.263.112-.395.01-11.324.022-22.648-.013-33.972-.002-.409-.37-.978-.734-1.197a407.437 407.437 0 00-9.766-5.713c-.338-.191-.976-.142-1.338.052-1.66.89-3.27 1.87-5.081 2.922zm-12.828 3.407l15.064-8.911c-2.537-1.491-4.949-2.788-7.221-4.295-1.116-.74-1.896-.546-2.912.065-4.32 2.6-8.686 5.126-13.015 7.71-1.018.608-1.775.396-2.464-.48-.727-.922-.395-1.684.373-2.34.462-.395.974-.742 1.498-1.052 3.783-2.242 7.576-4.469 11.525-6.794-2.544-1.52-4.953-2.904-7.298-4.389-.922-.583-1.627-.562-2.561-.003C35.898 8.428 28.71 12.66 21.53 16.906c-3.609 2.134-7.22 4.264-11.03 6.514 2.635 1.555 5.133 2.96 7.55 4.493.83.527 1.396.433 2.169-.03 4.728-2.836 9.483-5.629 14.23-8.434 1.165-.689 2.4-.56 2.896.295.501.864.104 2.165-.943 2.794-2.181 1.31-4.396 2.567-6.59 3.858-2.326 1.37-4.643 2.754-7.115 4.221 2.635 1.569 5.08 2.98 7.473 4.475.796.498 1.397.471 2.19 0 5.83-3.472 11.686-6.9 17.706-10.46zm14.88 41.3c-9.037 6.623-9.195 20.079-.315 26.966 8.355 6.479 20.79 3.588 25.417-5.938 3.358-6.916 1.736-14.593-3.264-19.464-6.033-5.88-14.623-6.43-21.837-1.564zm-40.16-29.88L20.94 33.86c0 3.678-.008 7.104.016 10.53.002.233.179.563.375.682 2.635 1.6 5.288 3.17 8.168 4.885 0-3.747.02-7.221-.033-10.694-.005-.3-.427-.676-.744-.876-1.232-.775-2.5-1.493-3.935-2.334z" fill="#0769CD"/><path d="M19.072 68.593c-.164-1.348-.299-2.596-.348-3.847-.05-1.223-.027-2.451-.006-3.676.02-1.21.823-2.17 1.828-2.068 1.135.115 1.757.785 1.746 1.992-.02 2.122.07 4.248-.051 6.362-.037.642-.491 1.597-.99 1.785-.567.214-1.398-.269-2.18-.548zm-3.477-8.647c0 1.318.02 2.498-.005 3.677-.027 1.366-.868 2.44-1.862 2.434-1.115-.007-1.838-.926-1.848-2.395a369.53 369.53 0 010-5.66c.013-1.509.685-2.351 1.832-2.355 1.159-.005 1.816.794 1.879 2.32.025.612.004 1.226.004 1.979zm52.982 11.75c-3.31 2.747-4.272 6.267-3.385 10.193.897 3.964 3.478 6.59 7.529 7.37 6.874 1.327 12.399-3.33 12.203-10.244-.092-3.252-1.65-5.81-4.219-7.797-1.334-1.032-1.139-2.743.374-3.204.491-.149 1.253.003 1.675.312 4.105 3.004 6.248 7.108 5.848 12.169-.448 5.658-3.497 9.78-8.81 11.8-8.295 3.155-17.005-2.025-18.427-10.734-1.3-7.97 5.308-15.831 13.183-15.718 1.153.017 2.014.403 2.12 1.588.103 1.143-.551 1.814-1.746 1.954-2.256.266-4.461.706-6.345 2.311z" fill="#0769CD"/><path d="M74.945 83.771c-.338.34-.598.616-.874.876-1.325 1.253-2.053 1.24-3.36-.05-.64-.633-1.279-1.265-1.92-1.896-.823-.808-1.004-1.736-.282-2.653.661-.84 1.795-.79 2.752.015.36.303.693.638 1.29 1.193 1.94-2.007 3.863-4.007 5.802-5.991.724-.74 1.52-1.35 2.59-.596 1.132.797 1.19 1.86.087 2.993-1.98 2.036-4.006 4.027-6.085 6.11z" fill="#0769CD"/></svg>
